packages/icons/src/components/Logo/assets/light/arch-linux.svg

<svg width="20" height="20" viewBox="0 0 20 20" fill="none" xmlns="http://www.w3.org/2000/svg">
<g>
<path d="M9.4925 0.504531C8.64625 2.57516 8.13812 3.93203 7.1975 5.94391C7.77375 6.55578 8.48312 7.26891 9.6325 8.07266C8.39562 7.56141 7.5525 7.05078 6.92063 6.52016C5.71625 9.03641 3.82813 12.6139 0 19.4952C3.01125 17.757 5.34187 16.6858 7.51625 16.2758C7.425 15.8752 7.37 15.4427 7.37312 14.9864L7.37625 14.892C7.425 12.9614 8.4275 11.4808 9.61563 11.5814C10.8038 11.682 11.7281 13.3264 11.6825 15.2564C11.6725 15.6177 11.6306 15.9658 11.5587 16.2914C13.7106 16.7114 16.0181 17.7789 18.9869 19.4945C18.4006 18.417 17.88 17.4439 17.3788 16.5195C16.5944 15.9108 15.7738 15.1164 14.1038 14.257C15.2531 14.5564 16.0731 14.9014 16.7144 15.2858C11.6394 5.84266 11.2325 4.58578 9.49125 0.503906L9.4925 0.504531ZM19.0819 17.7995V17.282H18.8863V17.2102H19.355V17.282H19.1594V17.7995H19.0813H19.0819ZM19.4369 17.7995V17.2102H19.5544L19.6944 17.627C19.7075 17.6664 19.7169 17.6952 19.7206 17.7152C19.7269 17.6958 19.74 17.6633 19.7531 17.6208L19.8931 17.2108H20.0006V17.8002H19.9256V17.3052L19.7531 17.8002H19.6813L19.5119 17.2989V17.8002H19.4369V17.7995Z" fill="black"/>
</g>
<defs>
<clipPath id="clip0_341_667">
<rect width="20" height="20" fill="white"/>
</clipPath>
</defs>
</svg>

<svg xmlns="http://www.w3.org/2000/svg" width="20" height="20" fill="none" viewBox="0 0 20 20">
    <path fill="#000" d="M9.493.505c-.847 2.07-1.355 3.427-2.296 5.439a14.8 14.8 0 0 0 2.436 2.129C8.396 7.56 7.553 7.05 6.92 6.52 5.716 9.036 3.828 12.614 0 19.495c3.011-1.738 5.342-2.81 7.516-3.22a5.6 5.6 0 0 1-.143-1.289l.003-.094c.049-1.93 1.051-3.411 2.24-3.31 1.188.1 2.112 1.744 2.066 3.674-.01.362-.051.71-.123 1.035 2.152.42 4.46 1.488 7.428 3.203-.586-1.077-1.107-2.05-1.608-2.974-.785-.61-1.605-1.404-3.275-2.263 1.15.3 1.97.644 2.61 1.029C11.64 5.843 11.233 4.586 9.491.504zM19.082 17.8v-.518h-.196v-.072h.469v.072h-.196v.517zm.355 0v-.59h.117l.14.417q.021.059.027.088l.032-.094.14-.41h.108v.59h-.075v-.496l-.173.495h-.072l-.17-.501v.501z"/>
</svg>
